public/icon/icon-fall-table.svg

<svg width="40" height="40" viewBox="0 0 40 40" fill="none" xmlns="http://www.w3.org/2000/svg">
<path d="M22.357 19.9996L27.8453 14.5112C28.1546 14.198 28.3274 13.7752 28.326 13.335C28.3246 12.8949 28.1491 12.4731 27.8379 12.1619C27.5266 11.8507 27.1049 11.6752 26.6647 11.6738C26.2246 11.6725 25.8017 11.8453 25.4885 12.1546L20.0002 17.6428L14.5119 12.1546C14.1984 11.8467 13.776 11.6751 13.3367 11.6771C12.8973 11.6791 12.4765 11.8545 12.1658 12.1652C11.8552 12.4759 11.6797 12.8967 11.6778 13.336C11.6758 13.7754 11.8474 14.1978 12.1552 14.5112L17.6434 19.9996L12.1552 25.4879C11.8474 25.8014 11.6758 26.2237 11.6778 26.6631C11.6797 27.1025 11.8552 27.5233 12.1658 27.8339C12.4765 28.1446 12.8973 28.32 13.3367 28.322C13.776 28.324 14.1984 28.1524 14.5119 27.8446L20.0002 22.3563L25.4885 27.8447C25.8017 28.1539 26.2246 28.3267 26.6647 28.3253C27.1049 28.3239 27.5266 28.1485 27.8379 27.8372C28.1491 27.526 28.3246 27.1042 28.3259 26.6641C28.3273 26.2239 28.1545 25.8011 27.8452 25.4879L22.357 19.9996Z" fill="white"/>
<path d="M31.7847 8.21535C28.6592 5.08987 24.4201 3.33398 20 3.33398C15.5799 3.33398 11.3408 5.08987 8.21535 8.21535C5.08987 11.3408 3.33398 15.5799 3.33398 20C3.33398 24.4201 5.08987 28.6592 8.21535 31.7847C11.3408 34.9102 15.5799 36.6661 20 36.6661C24.4201 36.6661 28.6592 34.9102 31.7847 31.7847C34.9102 28.6592 36.6661 24.4201 36.6661 20C36.6661 15.5799 34.9102 11.3408 31.7847 8.21535ZM27.845 25.4884C28.0021 25.6426 28.127 25.8264 28.2126 26.0292C28.2982 26.232 28.3428 26.4497 28.3438 26.6698C28.3448 26.8899 28.3022 27.1081 28.2184 27.3116C28.1347 27.5152 28.0114 27.7001 27.8557 27.8557C27.7001 28.0114 27.5152 28.1347 27.3116 28.2184C27.1081 28.3022 26.8899 28.3448 26.6698 28.3438C26.4497 28.3428 26.232 28.2982 26.0292 28.2126C25.8264 28.127 25.6426 28.0021 25.4884 27.845L20 22.3568L14.5117 27.845C14.1982 28.1529 13.7758 28.3245 13.3365 28.3225C12.8971 28.3205 12.4763 28.1451 12.1656 27.8344C11.855 27.5237 11.6796 27.1029 11.6776 26.6636C11.6756 26.2242 11.8472 25.8018 12.155 25.4884L17.6433 20L12.155 14.5117C11.8472 14.1982 11.6756 13.7758 11.6776 13.3365C11.6796 12.8971 11.855 12.4763 12.1656 12.1656C12.4763 11.855 12.8971 11.6796 13.3365 11.6776C13.7758 11.6756 14.1982 11.8472 14.5117 12.155L20 17.6433L25.4884 12.1549C25.8016 11.8457 26.2244 11.6728 26.6646 11.6742C27.1047 11.6756 27.5264 11.8511 27.8377 12.1624C28.1489 12.4736 28.3244 12.8954 28.3257 13.3355C28.3271 13.7757 28.1543 14.1985 27.845 14.5117L22.3568 20L27.845 25.4884Z" fill="#F26419"/>
</svg>

<svg width="40" height="40" fill="none" xmlns="http://www.w3.org/2000/svg"><path d="M22.357 20l5.488-5.489a1.666 1.666 0 00-2.357-2.356L20 17.643l-5.488-5.488a1.666 1.666 0 00-2.357 2.356L17.643 20l-5.488 5.488a1.667 1.667 0 002.357 2.357L20 22.356l5.488 5.489a1.667 1.667 0 002.357-2.357L22.357 20z" fill="#fff"/><path d="M31.785 8.215a16.666 16.666 0 10-23.57 23.57 16.666 16.666 0 0023.57-23.57zm-3.94 17.273a1.665 1.665 0 01-1.175 2.856 1.667 1.667 0 01-1.182-.499L20 22.357l-5.488 5.488a1.666 1.666 0 01-2.357-2.357L17.643 20l-5.488-5.488a1.667 1.667 0 012.357-2.357L20 17.643l5.488-5.488a1.667 1.667 0 012.357 2.357L22.357 20l5.488 5.488z" fill="#F26419"/></svg>
